assets/icons/utility/end_call.svg

<?xml version="1.0"?><svg xmlns="http://www.w3.org/2000/svg" width="52" height="52" viewBox="0 0 52 52"><path fill="#fff" d="m48.5 5.6l-2.1-2.1c-0.6-0.6-1.7-0.5-2.4 0.3l-23.5 23.5-5-5.6c-0.6-0.6-0.6-1.4-0.2-2.1l3.8-5.2c1.1-1.4 1-3.4-0.1-4.8l-4.9-6.1c-1.5-1.8-4.2-2-5.9-0.3l-5.2 5.2c-0.8 0.8-1.2 1.9-1.2 3 0.5 9.2 4.2 18 10 24.6l-8 8c-0.7 0.7-0.8 1.8-0.3 2.4l2.1 2.1c0.6 0.6 1.7 0.5 2.4-0.3l40.2-40.2c0.8-0.7 0.9-1.8 0.3-2.4z m0 32.3l-6.1-4.9c-1.4-1.1-3.4-1.2-4.8-0.1l-5.2 3.8c-0.6 0.5-1.5 0.4-2.1-0.2l-2.4-2.2-8.5 8.5c6.1 4.1 13.4 6.8 21 7.2 1.1 0.1 2.2-0.4 3-1.2l5.2-5.2c1.9-1.5 1.8-4.3-0.1-5.7z"></path></svg>

<svg xmlns="http://www.w3.org/2000/svg" x="0px" y="0px"
	 width="52px" height="52px" viewBox="0 0 52 52" enable-background="new 0 0 52 52" xml:space="preserve">
<path fill="#FFFFFF" d="M48.5,5.6l-2.1-2.1C45.8,2.9,44.7,3,44,3.8L20.5,27.3l-5-5.6c-0.6-0.6-0.6-1.4-0.2-2.1l3.8-5.2
	c1.1-1.4,1-3.4-0.1-4.8l-4.9-6.1c-1.5-1.8-4.2-2-5.9-0.3L3,8.4c-0.8,0.8-1.2,1.9-1.2,3c0.5,9.2,4.2,18,10,24.6l-8,8
	c-0.7,0.7-0.8,1.8-0.3,2.4l2.1,2.1C6.2,49.1,7.3,49,8,48.2L48.2,8C49,7.3,49.1,6.2,48.5,5.6z"/>
<path fill="#FFFFFF" d="M48.5,37.9L42.4,33c-1.4-1.1-3.4-1.2-4.8-0.1l-5.2,3.8c-0.6,0.5-1.5,0.4-2.1-0.2l-2.4-2.2l-8.5,8.5
	c6.1,4.1,13.4,6.8,21,7.2c1.1,0.1,2.2-0.4,3-1.2l5.2-5.2C50.5,42.1,50.4,39.3,48.5,37.9z"/>
</svg>
